frontend/public/svg/hand gestures/free-drag.svg

<svg width="143" height="144" viewBox="0 0 143 144" fill="none" xmlns="http://www.w3.org/2000/svg">
<g clip-path="url(#clip0)">
<path d="M139.56 66.4395C137.364 60.7733 132.139 57.8683 126.245 59.0379C124.834 59.3884 123.476 59.9237 122.205 60.6302C121.708 60.8783 121.197 61.1336 120.686 61.3639C116.542 54.8065 114.668 53.8463 105.165 53.3823C105.165 53.1946 105.167 53.0057 105.17 52.8159C105.177 52.1595 105.185 51.4789 105.158 50.8016C105.055 48.1263 104.958 45.4506 104.867 42.7745C104.63 36.0345 104.385 29.0656 103.98 22.2187C103.563 15.1775 101.748 9.4129 98.4323 4.59475C95.8227 0.803086 91.4908 -0.323861 87.3933 1.72391C85.1618 2.76284 83.3588 4.54133 82.289 6.75797C81.4607 8.53531 80.7321 10.4027 80.0279 12.2089C79.7936 12.8106 79.5566 13.414 79.3177 14.0191C79.1989 13.8253 79.0808 13.631 78.9633 13.4362C78.452 12.5929 77.9243 11.7212 77.3225 10.9139C74.6715 7.36972 71.0413 6.59067 67.0993 8.7139C65.9051 9.32895 64.8548 10.1901 64.0176 11.2407C63.1805 12.2912 62.5755 13.5073 62.2425 14.8087C61.7106 16.6678 61.3907 18.5811 61.2894 20.5122L61.1661 23.8024C60.8858 31.219 60.5964 38.8857 60.5898 46.431C60.5845 52.5763 60.7682 58.5844 60.9632 64.9456C61.04 67.4535 61.118 69.9752 61.183 72.5158L61.0295 72.3931C60.5452 72.0026 60.0864 71.6344 59.6047 71.2931C52.7998 66.4756 45.6534 64.8203 38.3621 66.3706C36.8181 66.6712 35.3722 67.3485 34.1527 68.3422C32.9331 69.3359 31.9775 70.6151 31.3709 72.0662C30.7565 73.5784 30.5249 75.2193 30.6966 76.8431C30.8684 78.4669 31.4382 80.0224 32.3554 81.3731C33.5982 83.1059 35.0597 84.6699 36.7037 86.0279L36.7549 86.0745C42.0575 90.8598 45.9862 95.7883 48.7658 101.143C52.9473 109.202 57.6321 117.677 63.0883 127.052C64.5171 129.506 66.8001 131.515 68.6299 132.99C72.0855 135.778 76.2172 138.058 81.6326 140.167C86.4285 142.056 91.5368 143.026 96.691 143.024C102.535 142.954 108.322 141.868 113.794 139.816C117.939 138.261 121.768 135.967 125.094 133.045C129.675 129.113 133.191 124.09 135.317 118.439C140.512 105.115 142.537 90.5815 141.504 74.0011C141.241 71.3968 140.586 68.8476 139.56 66.4395ZM72.6723 126.481C71.5047 125.676 70.4887 124.67 69.6709 123.511C67.9066 120.886 65.8574 117.75 64.0427 114.384C61.5243 109.713 59.0229 104.77 56.6069 99.6928C52.3407 90.7226 47.0371 83.8672 40.3956 78.7346C40.3194 78.6782 40.2473 78.6165 40.1802 78.5496C39.9682 78.3251 39.7457 78.1039 39.5238 77.8827C38.2578 76.6278 37.0627 75.4425 37.7013 73.4662C38.3924 71.3305 40.3215 70.9774 42.3614 70.9774C42.4611 70.9774 42.5622 70.9774 42.662 70.9774C49.8161 71.085 55.1532 73.734 58.5327 78.8534C59.172 79.9613 59.6436 81.1572 59.9315 82.4036C60.0313 82.7508 60.1284 83.0973 60.2354 83.4366C60.6784 84.8701 61.4009 86.3613 63.4008 86.5516C65.0416 86.7118 66.4463 85.4838 66.9937 83.4327C67.2234 82.5355 67.3291 81.6114 67.3074 80.6853C67.163 72.7226 66.9917 64.5689 66.7994 56.45C66.7554 54.6123 66.6806 52.743 66.6077 50.9368C66.468 47.451 66.3229 43.8483 66.399 40.3113C66.5401 33.7033 66.9523 26.9876 67.3514 20.4931L67.4748 18.4762C67.6231 16.0576 68.2282 13.4829 71.5677 12.6586C73.7297 14.2922 75.0417 16.6477 75.5753 19.8546C76.4633 25.1847 77.0461 29.9727 77.3573 34.4909C77.8049 40.9755 78.1449 47.5789 78.473 53.9645C78.6483 57.3284 78.8268 60.6919 79.0093 64.055C79.0545 64.7636 79.2252 65.4586 79.514 66.1074C79.7673 66.7676 80.2629 67.3071 80.8989 67.6163C81.5348 67.9254 82.2647 67.9812 82.9407 67.7725C83.578 67.6622 84.149 67.3111 84.5356 66.7926C84.9222 66.2734 85.0955 65.6262 85.0193 64.9837C85.0016 64.0517 85.0193 63.0974 85.039 62.1746C85.1053 60.5201 85.0718 58.8631 84.9386 57.2127C83.9777 47.7082 84.5133 38.0476 85.0318 28.7092L85.106 27.3618C85.3029 23.7723 85.5864 20.2438 85.8621 16.9667C86.0196 14.0942 87.0153 11.3308 88.727 9.01844C89.7397 7.69329 90.5811 7.07699 91.3025 7.13541C92.0238 7.19382 92.7536 7.93935 93.5393 9.41415C95.9382 13.912 96.5584 18.8753 96.9877 23.5727C97.9892 34.5421 97.9991 46.1467 97.0205 61.1999C96.9634 62.0734 96.8538 62.9628 96.7481 63.8252C96.6516 64.6036 96.5512 65.4096 96.4908 66.2078L96.4659 66.5189C96.3464 67.9628 96.1961 69.7592 98.3227 70.4996C100.263 71.1763 102.863 70.0651 103.887 68.1256C104.257 67.3971 104.511 66.6147 104.636 65.8068C104.843 64.5899 104.949 63.3422 105.053 62.0998C105.19 60.4707 105.69 59.3504 106.54 58.7688C107.369 58.2024 108.546 58.1394 110.043 58.5818C112.964 59.4462 114.784 61.3515 115.307 64.095C115.572 65.6976 115.725 67.317 115.766 68.9408C115.784 69.3168 115.802 69.6916 115.822 70.0657C115.911 71.702 116.252 73.2923 118.129 73.8462C120.313 74.4908 121.384 73.0042 122.214 71.5582L122.448 71.15C123.162 69.8216 123.977 68.5489 124.884 67.3432C126.388 65.4517 128.176 64.5092 129.807 64.7566C131.338 64.9903 132.618 66.2485 133.412 68.3008C134.838 71.7886 135.688 75.4851 135.928 79.2459C136.348 89.3621 134.499 99.2045 132.633 107.498C131.387 112.831 129.113 117.869 125.939 122.331C122.505 127.258 117.245 130.873 110.305 133.076C97.2738 137.208 84.6137 134.993 72.6736 126.481H72.6723Z" fill="black"/>
<path d="M38.741 42.8171C38.7496 42.4697 38.6871 42.1241 38.5577 41.8016C38.4282 41.4791 38.2346 41.1863 37.9882 40.9412C36.3191 39.366 34.4746 40.5764 33.8688 40.9741C33.0707 41.4992 32.3219 42.0971 31.4556 42.7896C31.1858 43.0048 30.9037 43.2306 30.6024 43.4662L29.6237 29.6654H43.1287C42.8819 30.0822 42.6396 30.4727 42.4066 30.8468C41.7155 31.8507 41.1566 32.9396 40.744 34.0865C40.4158 35.1707 40.609 36.9625 41.3651 37.7377C42.3863 38.7839 43.9994 38.6389 45.4768 37.3702C46.0166 36.9139 46.4872 36.3812 46.8731 35.789L47.6573 34.5571C48.8282 32.7194 50.0393 30.8251 51.0986 28.8804C52.834 25.6998 52.3965 23.6828 49.4837 21.4395C48.4336 20.6283 47.318 19.8735 46.2357 19.1423C45.305 18.5129 44.3428 17.8619 43.4312 17.1812C42.3653 16.3857 40.9743 15.6296 39.6787 16.8661C38.5577 17.9346 38.5737 19.3911 39.7229 20.9669C40.2165 21.6436 40.7343 22.2973 41.2824 22.9884L41.6144 23.4078H29.3696V11.2964C29.6905 11.471 30.0064 11.6495 30.3195 11.8261C31.4141 12.4956 32.5739 13.0521 33.781 13.4873C34.3456 13.6356 34.9359 13.6583 35.5103 13.5537C36.0846 13.4492 36.6291 13.2199 37.1052 12.8822C37.839 12.2586 38.3969 11.0976 36.888 9.10952C36.6063 8.71618 36.2683 8.36661 35.8846 8.07192C35.263 7.62561 34.65 7.16217 34.037 6.69881C32.4357 5.41366 30.7246 4.27166 28.9235 3.28588C27.4237 2.52453 25.0916 2.07363 23.5301 2.68403C19.0992 4.42004 16.7195 8.38164 14.419 12.2127L14.3126 12.3893C13.928 13.0299 14.1999 14.5592 14.7683 14.949C15.1805 15.2043 15.646 15.3608 16.1288 15.4064C16.6115 15.4519 17.0983 15.3852 17.551 15.2115C18.5363 14.6295 19.4372 13.9151 20.2283 13.0882C20.3891 12.9353 20.5492 12.7824 20.7087 12.6334C21.4064 11.9823 22.0688 11.2951 22.8348 10.4996L23.4488 9.86306V23.7025L9.77337 24.4771C10.051 24.1384 10.3161 23.8207 10.5675 23.5195C11.391 22.5811 12.1509 21.5887 12.8419 20.5489C13.0329 20.1602 13.1215 19.729 13.0993 19.2965C13.077 18.8639 12.9443 18.4442 12.7144 18.0771C12.3953 17.7993 12.0192 17.5952 11.6122 17.4793C11.2054 17.3635 10.7777 17.3388 10.3601 17.407C9.63363 17.5918 8.98215 17.9969 8.49495 18.5668L7.51044 19.5513C5.48829 21.5715 3.39784 23.6605 1.45312 25.8219C-0.0459571 27.4863 0.0143026 29.3661 1.62233 31.1093C3.07415 32.6845 4.68354 34.1547 6.24169 35.5783C6.75247 36.1331 7.43168 36.5043 8.17446 36.6344C9.17013 36.7059 10.5616 36.7236 11.1687 36.0627C11.8034 35.3722 11.7307 33.8535 11.4767 32.9957C11.1971 32.2416 10.7944 31.5392 10.2849 30.9171C10.1457 30.7202 9.99993 30.52 9.85029 30.3047H23.7798L24.3804 45.9439L20.6292 43.2306C20.2846 42.9806 19.948 42.7134 19.612 42.443C18.8179 41.7562 17.9397 41.1734 16.9985 40.7083C16.1715 40.344 14.5012 40.5258 13.9886 41.2018C13.5829 41.7374 13.6183 42.7495 14.0921 44.2092C14.3542 44.768 14.77 45.2409 15.2907 45.5724C15.3891 45.6505 15.4876 45.7273 15.5781 45.8035C18.2074 47.9838 21.0362 50.3216 23.9083 52.6418C24.6945 53.3274 25.6939 53.7196 26.7365 53.7517C27.6792 53.7356 28.5857 53.3869 29.2962 52.7672C32.1723 50.3998 34.9702 47.9136 37.6113 45.3775C37.9618 45.0484 38.2425 44.652 38.4366 44.2121C38.6306 43.7722 38.7342 43.2978 38.741 42.8171Z" fill="black"/>
</g>
<defs>
<clipPath id="clip0">
<rect width="141.769" height="143.082" fill="white" transform="translate(0.279541 0.230713)"/>
</clipPath>
</defs>
</svg>

<svg xmlns="http://www.w3.org/2000/svg" width="143" height="144" fill="none" viewBox="0 0 143 144"><g fill="#000" clip-path="url(#a)"><path d="M139.56 66.44c-2.196-5.667-7.421-8.572-13.315-7.402-1.411.35-2.769.886-4.04 1.592-.497.248-1.008.504-1.519.734-4.144-6.557-6.018-7.518-15.521-7.982q0-.28.005-.566c.007-.657.015-1.337-.012-2.014q-.154-4.014-.291-8.027c-.237-6.74-.482-13.71-.887-20.556-.417-7.042-2.232-12.806-5.548-17.624-2.61-3.792-6.941-4.919-11.039-2.871a10.67 10.67 0 0 0-5.104 5.034c-.828 1.777-1.557 3.645-2.261 5.45q-.351.904-.71 1.811l-.355-.583c-.511-.843-1.039-1.715-1.64-2.522-2.651-3.544-6.282-4.323-10.224-2.2a9.5 9.5 0 0 0-4.857 6.095 25.6 25.6 0 0 0-.953 5.703l-.123 3.29c-.28 7.417-.57 15.084-.576 22.629-.006 6.145.178 12.153.373 18.515.077 2.508.155 5.03.22 7.57l-.154-.123c-.484-.39-.943-.759-1.424-1.1-6.805-4.817-13.952-6.473-21.243-4.922a9.55 9.55 0 0 0-6.991 5.695 9.92 9.92 0 0 0 .984 9.307 24.7 24.7 0 0 0 4.349 4.655l.05.046c5.304 4.786 9.232 9.714 12.012 15.069 4.181 8.059 8.866 16.534 14.322 25.909 1.43 2.454 3.712 4.463 5.542 5.938 3.456 2.788 7.587 5.068 13.003 7.177a41 41 0 0 0 15.058 2.857 50.4 50.4 0 0 0 17.103-3.208 36.6 36.6 0 0 0 11.3-6.771 35.9 35.9 0 0 0 10.223-14.606c5.195-13.324 7.22-27.857 6.187-44.438a26 26 0 0 0-1.944-7.562M72.672 126.48a12 12 0 0 1-3.001-2.97c-1.764-2.625-3.814-5.761-5.628-9.127a329 329 0 0 1-7.436-14.691c-4.266-8.97-9.57-15.826-16.211-20.958a2 2 0 0 1-.216-.185c-.212-.225-.434-.446-.656-.667-1.266-1.255-2.461-2.44-1.823-4.417.691-2.135 2.62-2.489 4.66-2.489h.301c7.154.108 12.491 2.757 15.87 7.876a13 13 0 0 1 1.4 3.55c.1.348.196.694.303 1.034.443 1.433 1.166 2.924 3.166 3.115 1.64.16 3.045-1.068 3.593-3.12.23-.897.335-1.82.313-2.747A4390 4390 0 0 0 66.8 56.45a338 338 0 0 0-.191-5.513c-.14-3.486-.285-7.089-.209-10.626.141-6.608.553-13.323.952-19.818l.124-2.017c.148-2.418.753-4.993 4.093-5.817 2.162 1.633 3.474 3.989 4.007 7.196.888 5.33 1.471 10.118 1.782 14.636.448 6.484.788 13.088 1.116 19.474q.263 5.045.536 10.09c.046.709.216 1.404.505 2.052a2.79 2.79 0 0 0 3.427 1.665 2.53 2.53 0 0 0 2.078-2.788c-.017-.932 0-1.887.02-2.81a41 41 0 0 0-.1-4.961c-.961-9.505-.426-19.165.093-28.504l.074-1.347c.197-3.59.48-7.118.756-10.395a14.7 14.7 0 0 1 2.865-7.949c1.013-1.325 1.854-1.941 2.575-1.883s1.452.804 2.237 2.28c2.4 4.497 3.02 9.46 3.449 14.158C97.99 34.543 98 46.147 97.021 61.2a47 47 0 0 1-.272 2.625c-.096.779-.197 1.585-.257 2.383l-.025.31c-.12 1.445-.27 3.241 1.857 3.982 1.94.676 4.54-.435 5.564-2.374.37-.729.624-1.511.749-2.32.207-1.216.313-2.464.417-3.706.137-1.63.637-2.75 1.487-3.331.829-.567 2.006-.63 3.503-.187 2.921.864 4.741 2.77 5.264 5.513.265 1.603.418 3.222.459 4.846q.026.563.056 1.125c.089 1.636.43 3.226 2.307 3.78 2.184.645 3.255-.842 4.085-2.288l.234-.408a30 30 0 0 1 2.436-3.807c1.504-1.891 3.292-2.834 4.923-2.586 1.531.233 2.811 1.492 3.605 3.544a34.8 34.8 0 0 1 2.516 10.945c.42 10.116-1.429 19.959-3.295 28.252a42.1 42.1 0 0 1-6.694 14.833c-3.434 4.927-8.694 8.542-15.634 10.745-13.031 4.132-25.691 1.917-37.631-6.595zM38.741 42.817a2.56 2.56 0 0 0-.753-1.876c-1.669-1.575-3.513-.365-4.12.033-.797.525-1.546 1.123-2.412 1.816q-.403.322-.854.676l-.978-13.8h13.505q-.372.622-.722 1.18a14.2 14.2 0 0 0-1.663 3.24c-.328 1.085-.135 2.877.621 3.652 1.021 1.046 2.634.9 4.112-.368a7.3 7.3 0 0 0 1.396-1.581l.784-1.232c1.171-1.838 2.382-3.732 3.442-5.677 1.735-3.18 1.298-5.197-1.615-7.44-1.05-.812-2.166-1.567-3.248-2.298-.931-.63-1.893-1.28-2.805-1.96-1.066-.796-2.457-1.552-3.752-.316-1.121 1.069-1.105 2.525.044 4.1a63 63 0 0 0 1.56 2.022l.331.42H29.37V11.296q.48.264.95.53a19 19 0 0 0 3.461 1.661 4 4 0 0 0 3.324-.605c.734-.623 1.292-1.784-.217-3.772a5 5 0 0 0-1.003-1.038c-.622-.446-1.235-.91-1.848-1.373a35 35 0 0 0-5.113-3.413c-1.5-.761-3.832-1.212-5.394-.602-4.43 1.736-6.81 5.698-9.111 9.529l-.106.176c-.385.64-.113 2.17.455 2.56a3.15 3.15 0 0 0 2.783.262 12.5 12.5 0 0 0 2.677-2.123q.241-.23.48-.455c.698-.65 1.36-1.338 2.127-2.133l.614-.637v13.84l-13.676.774q.417-.507.795-.957a28 28 0 0 0 2.274-2.971 2.54 2.54 0 0 0-.128-2.472 2.88 2.88 0 0 0-2.354-.67 3.63 3.63 0 0 0-1.865 1.16l-.985.984c-2.022 2.02-4.112 4.11-6.057 6.27-1.499 1.665-1.439 3.545.17 5.288 1.451 1.575 3.06 3.046 4.619 4.47.51.554 1.19.925 1.932 1.055.996.072 2.388.09 2.995-.571.634-.69.562-2.21.308-3.067a7.3 7.3 0 0 0-1.192-2.079c-.14-.197-.285-.397-.435-.612h13.93l.6 15.639-3.75-2.713a26 26 0 0 1-1.018-.788 12.4 12.4 0 0 0-2.613-1.735c-.827-.364-2.498-.182-3.01.494-.406.535-.37 1.547.103 3.007a3.26 3.26 0 0 0 1.199 1.363c.098.078.197.155.287.231a853 853 0 0 0 8.33 6.839 4.5 4.5 0 0 0 2.828 1.11 4 4 0 0 0 2.56-.985 146 146 0 0 0 8.315-7.39 3.58 3.58 0 0 0 1.13-2.56"/></g><defs><clipPath id="a"><path fill="#fff" d="M.28.23h141.769v143.083H.279z"/></clipPath></defs></svg>
